X:193
T:Miss Macdonal's Rant. Ru1.193
%%VWML:RutherfordVol1-2248-p77-0p77
Z:Transcription by Village Music Project, Steve Mansfield July 2015
F:http://www.village-music-project.org.uk/
F:http://www.vwml.org/record/RutherfordVol1/2248/p77
L:1/8
R:Rant
W:Cast off two Couple .| Cast up again :| Cross over
W:Two Couple .|. Lead up to the Top foot it & Cast off
W::||: Hands across with the Bottom Couple .|| And
W:Back again :|| Hands Round four at Top :||.
W:Right Hand and Left :|
Q:2/4=60
K:Em
|:E2EF BFEF | E2EF dFEF | E2EF EFGA | (B/c/d) AG FDDF :|
|: Eeed eEEF | Eeec dDDF | Eeed BcdB | (e/f/g) fe dDD2 :|]
T:Gordon Castle. Ru1.194
B:Rutherford's Country Dances Vol 1, 1756
Z:village music project, Steve Mansfield July 2015
M:C|
L:1/8
W:Cast off & Hands Round with the 3d Couple .| Cast
W:up again & Hands round with the 2d Couple :| Gallop
W:down & up again & Cast off .|. Right Hand & Left :|
Q:2/4=60
K:G
|:c | BGdB BGec | BGdB cAAc | BGdB cAec | BGdB G2G :|
|: e | gd B/c/d/B/ gd B/c/d/B/ | gd B/c/d/B/ aAAf | \
gd B/c/d/B/ gd B/c/d/B/ | cAdB G2G :|]
